package/converter/svg/regular/circle-z.svg

<svg xmlns="http://www.w3.org/2000/svg" viewBox="0 0 512 512"><!-- Font Awesome Pro 6.0.0-alpha2 by @fontawesome - https://fontawesome.com License - https://fontawesome.com/license (Commercial License) --><path d="M328 336H229.812L347.719 165.656C352.812 158.328 353.406 148.766 349.25 140.859C345.125 132.953 336.938 128 328 128H184C170.75 128 160 138.75 160 152S170.75 176 184 176H282.188L164.281 346.344C159.188 353.672 158.594 363.234 162.75 371.141C166.875 379.047 175.062 384 184 384H328C341.25 384 352 373.25 352 360S341.25 336 328 336ZM256 16C123.451 16 16 123.451 16 256S123.451 496 256 496S496 388.549 496 256S388.549 16 256 16ZM256 448C150.131 448 64 361.869 64 256S150.131 64 256 64S448 150.131 448 256S361.869 448 256 448Z"/></svg>

<svg xmlns="http://www.w3.org/2000/svg" viewBox="0 0 512 512"><!--! Font Awesome Pro 6.6.0 by @fontawesome - https://fontawesome.com License - https://fontawesome.com/license (Commercial License) Copyright 2024 Fonticons, Inc. --><path d="M256 48a208 208 0 1 1 0 416 208 208 0 1 1 0-416zm0 464A256 256 0 1 0 256 0a256 256 0 1 0 0 512zM184 128c-13.3 0-24 10.7-24 24s10.7 24 24 24l98.2 0L164.3 346.3c-5.1 7.3-5.7 16.9-1.5 24.8S175.1 384 184 384l144 0c13.3 0 24-10.7 24-24s-10.7-24-24-24l-98.2 0L347.7 165.7c5.1-7.3 5.7-16.9 1.5-24.8S336.9 128 328 128l-144 0z"/></svg>
